img/stats-img-3.svg

<svg width="80" height="99" viewBox="0 0 80 99" fill="none" xmlns="http://www.w3.org/2000/svg">
<path d="M0 13C0 5.8203 5.8203 0 13 0H80V99H13C5.8203 99 0 93.1797 0 86V13Z" fill="url(#paint0_linear)"/>
<path d="M20.9448 56.504L23.1177 56.1497V38.955L20.9448 38.6244V38.1048H28.3611C30.6916 38.1048 32.4236 38.6008 33.5573 39.5928C34.691 40.5848 35.2579 42.0177 35.2579 43.8914C35.2579 45.7652 34.691 47.1981 33.5573 48.1901C32.4236 49.1821 30.6916 49.6781 28.3611 49.6781H25.7158V56.1497L27.8888 56.504V57H20.9448V56.504ZM28.0305 49.1112C30.9435 49.1112 32.4 47.5288 32.4 44.3638V43.419C32.4 40.2698 30.9435 38.6952 28.0305 38.6952H25.7158V49.1112H28.0305ZM46.9161 57.2362L39.8776 38.955V55.5592L42.1451 56.504V57H37.0906V56.504L39.3108 55.5592V38.955L37.1378 38.6244V38.1048H42.3576L48.286 53.2682L54.3325 38.1048H59.1035V38.6244L56.9306 38.955V56.1497L59.1035 56.504V57H52.1595V56.504L54.3325 56.1497V39.6636L47.3413 57.2362H46.9161Z" fill="#6B71FF"/>
<defs>
<linearGradient id="paint0_linear" x1="36.2667" y1="-4.8125" x2="63.0238" y2="96.2944" gradientUnits="userSpaceOnUse">
<stop stop-color="#524E7B"/>
<stop offset="1" stop-color="#1D1B45"/>
</linearGradient>
</defs>
</svg>

<svg width="80" height="99" fill="none" xmlns="http://www.w3.org/2000/svg"><path d="M0 13C0 5.82 5.82 0 13 0h67v99H13C5.82 99 0 93.18 0 86V13z" fill="url(#paint0_linear)"/><path d="M20.945 56.504l2.173-.354V38.955l-2.173-.33v-.52h7.416c2.33 0 4.063.496 5.196 1.488 1.134.992 1.7 2.425 1.7 4.298 0 1.874-.566 3.307-1.7 4.3-1.133.991-2.865 1.487-5.196 1.487h-2.645v6.472l2.173.354V57h-6.944v-.496zm7.085-7.393c2.913 0 4.37-1.582 4.37-4.747v-.945c0-3.15-1.456-4.724-4.37-4.724h-2.314v10.416h2.314zm18.886 8.125l-7.038-18.281v16.604l2.267.945V57h-5.054v-.496l2.22-.945V38.955l-2.173-.33v-.52h5.22l5.928 15.163 6.047-15.163h4.77v.52l-2.172.33V56.15l2.172.354V57H52.16v-.496l2.174-.354V39.664L47.34 57.236h-.425z" fill="#6B71FF"/><defs><linearGradient id="paint0_linear" x1="36.267" y1="-4.813" x2="63.024" y2="96.294" gradientUnits="userSpaceOnUse"><stop stop-color="#524E7B"/><stop offset="1" stop-color="#1D1B45"/></linearGradient></defs></svg>
